X:28
T:Mace in the Face
C:Roy Watrous1974
S:The Watrous Book, 1992
M:6/8
L:1/8
Q:1/8=270
K:Edor
%%MIDI program 72
%%MIDI transpose 8
%%MIDI ratio 3 1
{FE}DFA EGB|Acd e2f|edc Bcd|AFD E2F|DFA EGB|
Acd e2f|edc BAF|E3-E2::d|cAd eAf|gAf eAd|
cde faf|e3 (A3{GFE}|D)FA EGB|Acd e2f|edc BAF|E3-E2:|]

